icons/needle-outline.svg

<svg width="24" height="24" viewBox="0 0 24 24" fill="none" xmlns="http://www.w3.org/2000/svg">
<path fill-rule="evenodd" clip-rule="evenodd" d="M18.87 13.2121C19.812 14.1551 19.812 15.0981 18.87 16.0401L18.162 16.7481L19.576 18.1621L20.991 16.7481C21.462 16.2761 21.933 16.2761 22.405 16.7481C22.876 17.2191 22.876 17.6901 22.405 18.1621L18.162 22.4041C17.691 22.8761 17.219 22.8761 16.748 22.4041C16.276 21.9341 16.276 21.4621 16.748 20.9901L18.162 19.5761L16.748 18.1621L16.041 18.8691C15.098 19.8121 14.155 19.8121 13.212 18.8691C11.799 17.4541 8.312 13.9691 6.142 11.7981C5.199 10.8551 5.199 9.91207 6.142 8.96907L6.848 8.26207L2.81 4.24707H5.64L8.264 6.84807L8.971 6.14107C9.914 5.19807 10.856 5.19807 11.799 6.14107L18.87 13.2121ZM17.455 14.6261L10.384 7.55607L7.556 10.3841L8.97 11.7981L9.677 11.0911C10.148 10.6191 10.62 10.6191 11.091 11.0911C11.563 11.5621 11.563 12.0341 11.091 12.5051L10.384 13.2121L11.798 14.6261L12.505 13.9191C12.981 13.4521 13.452 13.4521 13.92 13.9191C14.387 14.3871 14.387 14.8581 13.92 15.3331L13.212 16.0401L14.627 17.4551L17.455 14.6261Z" fill="#3A3A47"/>
</svg>

<svg xmlns="http://www.w3.org/2000/svg" width="24" height="24" viewBox="0 0 24 24">
    <path fill="#3A3A47" fill-rule="evenodd" d="M18.162 22.404c-.471.472-.943.472-1.414 0-.472-.47-.472-.942 0-1.414l1.414-1.414-1.414-1.414-.707.707c-.943.943-1.886.943-2.829 0-1.413-1.415-4.9-4.9-7.07-7.071-.943-.943-.943-1.886 0-2.829l.706-.707L2.81 4.247H5.64l2.624 2.601.707-.707c.943-.943 1.885-.943 2.828 0l7.071 7.071c.943.943.943 1.886 0 2.828l-.707.708 1.414 1.414 1.415-1.414c.471-.472.942-.472 1.414 0 .471.471.471.942 0 1.414l-4.243 4.242zm-3.535-4.95l2.828-2.828-7.071-7.07-2.828 2.828 1.414 1.414.707-.707c.471-.472.943-.472 1.414 0 .472.471.472.943 0 1.414l-.707.707 1.414 1.414.707-.707c.476-.467.947-.467 1.415 0 .467.468.467.939 0 1.414l-.708.707 1.415 1.415z"/>
</svg>
